src/assets/Union.svg

<svg width="40" height="40" viewBox="0 0 40 40" fill="none" xmlns="http://www.w3.org/2000/svg">
<path d="M19.8721 0C20.9691 0.000450547 21.8593 0.890162 21.8594 1.9873L21.8584 18.0547L37.9258 18.0537C39.023 18.0537 39.9126 18.9439 39.9131 20.041C39.9131 21.1385 39.0233 22.0283 37.9258 22.0283L24.8389 22.0293L39.3311 36.5215C40.107 37.2975 40.1069 38.555 39.3311 39.3311C38.555 40.1071 37.2965 40.1071 36.5205 39.3311L22.0293 24.8398L22.0273 37.9268C22.0271 39.024 21.1382 39.9129 20.041 39.9131C18.9441 39.9126 18.0539 39.0238 18.0537 37.9268V21.8584L1.9873 21.8594C0.890202 21.8594 0.000612659 20.97 0 19.873C1.85021e-07 18.7756 0.889824 17.8857 1.9873 17.8857L15.0742 17.8848L0.582031 3.39258C-0.194005 2.61654 -0.194005 1.35807 0.582031 0.582031C1.35808 -0.19382 2.6166 -0.193943 3.39258 0.582031L17.8838 15.0742L17.8857 1.9873C17.8858 0.889986 18.7748 0.000164823 19.8721 0Z" fill="white"/>
</svg>

<svg xmlns="http://www.w3.org/2000/svg" width="40" height="40" fill="none"><path fill="#fff" d="M19.872 0c1.097 0 1.987.89 1.987 1.987v16.068l16.067-.001a1.988 1.988 0 0 1 0 3.974l-13.087.001L39.33 36.522a1.987 1.987 0 1 1-2.81 2.81L22.028 24.84l-.002 13.087a1.986 1.986 0 0 1-3.973 0V21.858l-16.067.001a1.988 1.988 0 0 1 0-3.973l13.087-.001L.582 3.393A1.987 1.987 0 0 1 3.392.582l14.492 14.492.002-13.087C17.886.89 18.775 0 19.872 0"/></svg>
